X:1
T:French Suite V Gigue
T:BWV 816
T:J. S. Bach
%%score { ( 1 3 5 6 ) | ( 2 4 ) }
L:1/8
M:12/16
K:G
V:1 treble nm="Harp"
V:3 treble 
V:5 treble 
V:6 treble 
V:2 bass 
V:4 bass 
V:1
 d/ | g/b/f/ g/b/d/ g/b/f/ g/b/d/ | e/c/G/ gc/ d/B/G/ gB/ | c/d/e/ d/e/c/ B/d/g/ b/a/g/ | %4
 aa/ aa/ aa/ aa/ | d/g/b/ b/g/d/ d/f/a/ a/f/d/ | d3/2^c3/2 d3/2f3/2 | ga/ bc'/ ba/ g3/2- | g6- | %9
 g3/2f3/2 g3/2 z d/ | e/g/d/ e/g/B/ c3/2 z/ z/ g/ | a/c'/g/ a/c'/e/ f/a/e/ f/a/^c/ | %12
 d/f/^c/ d/f/A/ B/d/c/ d/e/B/ | ^c/e/d/ e/f/c/ d/f/e/ f/a/g/ | a z/ ^c/e/g/ fe/ fg/ | %15
 fe/ d3/2- d3- | d3- dd/ ^cB/ | A3/2 BA/ G3/2 AG/ | FG/ AB/ ^CD/ EF/ | GA/ B^c/ DE/ FG/ | A3- A3- | %21
 A/G/D/ dG/ A/F/D/ dF/ | G/A/B/ A/B/G/ F/A/G/ A/^c/B/ | ^c/e/g/ g/e/c/ A/c/e/ g/f/e/ | %24
 f/e/d/ d/e/^c/ d3/2-d d/ | g/b/f/ g/b/d/ g/b/f/ g/b/d/ | e/c/G/ gc/ d/B/G/ gB/ | %27
 c/d/e/ d/e/c/ B/d/g/ b/a/g/ | aa/ aa/ aa/ aa/ | d/g/b/ b/g/d/ d/f/a/ a/f/d/ | d3/2^c3/2 d3/2f3/2 | %31
 ga/ bc'/ ba/ g3/2- | g6- | g3/2f3/2 g3/2 z d/ | e/g/d/ e/g/B/ c3/2 z/ z/ g/ | %35
 a/c'/g/ a/c'/e/ f/a/e/ f/a/^c/ | d/f/^c/ d/f/A/ B/d/c/ d/e/B/ | ^c/e/d/ e/f/c/ d/f/e/ f/a/g/ | %38
 a z/ ^c/e/g/ fe/ fg/ | fe/ d3/2- d3- | d3- dd/ ^cB/ | A3/2 BA/ G3/2 AG/ | FG/ AB/ ^CD/ EF/ | %43
 GA/ B^c/ DE/ FG/ | A3- A3- | A/G/D/ dG/ A/F/D/ dF/ | G/A/B/ A/B/G/ F/A/G/ A/^c/B/ | %47
 ^c/e/g/ g/e/c/ A/c/e/ g/f/e/ | f/e/d/ d/e/^c/ d3/2-d z/ | z6 | z6 | z3 z3/2 z/ z/ D/ | %52
 B,/G,/C/ B,/G,/D/ B,/G,/C/ B,/G,/D/ | B,/D/=F/ G,E/ C/E/G/ A,F/ | D/=F/A/ B,/G/F/ E3/2 z/ z/ C/ | %55
 A,/C/E/ C/A,/C/[I:staff +1] F,D/ C/4B,/4C/4B,/4A,/ |[I:staff -1] z3 z3/2 z/ z/ G/ | %57
 F/D/G/ F/D/A/ F/D/G/ F/D/A/ | F/A/c/ DB/ G/B/d/ Ec/ | A/c/e/ F/d/c/ B/d/g/ d/g/b/ | %60
 e/g/B/ c/e/G/ A/c/f/ c/f/a/ | ^d/f/A/ B/d/F/ G/B/e/ B/e/g/ | c/e/^G/ A/c/e/ a z/ z3/2 | %63
 z/ z/ g/ f3/2- fg/ f3/2- | f3/2g3/2- g3/2a3/2- | a3/2b3/2 b3- | %66
 b/^g/a/ =f/^d/e/ c/^G/A/ =F/^D/E/ | ^D/F/A/ c/B/^d/ e/f/g/ B/e/d/ | e3- e3- | e z/ z3/2 z3 | %70
 z3/2 z/ e/d/ c/A/d/ c/A/e/ | c/A/d/ c/A/e/ ^c/e/g/ Af/ | d/f/a/ Bg/ e/g/b/ ^c/a/g/ | %73
 f/d/g/ f/d/a/ f/d/g/ f/d/a/ | f/a/c'/ db/ e/g/b/ ca/ | d/f/a/ Bg/ c/e/g/ A/c/e/ | %76
 F/A/c/ D/F/A<c cc/- | c3/2- cc/- c3/2 c/A/d/- | d3/2- d/B/e/- e3/2- e/c/f/ | %79
 g3/2 g/=f/d/ e3/2 z/ A/c/ | B/A/G/ G/A/F/ G3/2- G z/ | z6 | z6 | z3 z3/2 z/ z/ D/ | %84
 B,/G,/C/ B,/G,/D/ B,/G,/C/ B,/G,/D/ | B,/D/=F/ G,E/ C/E/G/ A,F/ | D/=F/A/ B,/G/F/ E3/2 z/ z/ C/ | %87
 A,/C/E/ C/A,/C/[I:staff +1] F,D/ C/4B,/4C/4B,/4A,/ |[I:staff -1] z3 z3/2 z/ z/ G/ | %89
 F/D/G/ F/D/A/ F/D/G/ F/D/A/ | F/A/c/ DB/ G/B/d/ Ec/ | A/c/e/ F/d/c/ B/d/g/ d/g/b/ | %92
 e/g/B/ c/e/G/ A/c/f/ c/f/a/ | ^d/f/A/ B/d/F/ G/B/e/ B/e/g/ | c/e/^G/ A/c/e/ a z/ z3/2 | %95
 z/ z/ g/ f3/2- fg/ f3/2- | f3/2g3/2- g3/2a3/2- | a3/2b3/2 b3- | %98
 b/^g/a/ =f/^d/e/ c/^G/A/ =F/^D/E/ | ^D/F/A/ c/B/^d/ e/f/g/ B/e/d/ | e3- e3- | e z/ z3/2 z3 | %102
 z3/2 z/ e/d/ c/A/d/ c/A/e/ | c/A/d/ c/A/e/ ^c/e/g/ Af/ | d/f/a/ Bg/ e/g/b/ ^c/a/g/ | %105
 f/d/g/ f/d/a/ f/d/g/ f/d/a/ | f/a/c'/ db/ e/g/b/ ca/ | d/f/a/ Bg/ c/e/g/ A/c/e/ | %108
 F/A/c/ D/F/A<c cc/- | c3/2- cc/- c3/2 c/A/d/- | d3/2- d/B/e/- e3/2- e/c/f/ | %111
 g3/2 g/=f/d/ e3/2 z/ A/c/ | B/A/G/ G/A/F/ G3/2- !fermata!G z/ |] %113
V:2
 z/ | z6 | z6 | z6 | z6 | z6 | z3 z3/2[K:treble] z/ z/ D/ | G/B/F/ G/B/D/ G/B/F/ G/B/D/ | %8
 E/C/G,/ GC/ D/B,/G,/ GB,/ | C/D/E/ D/E/C/[K:bass] B,/D/A,/ B,/D/G,/ | %10
 CB,/ CG,/ A,/C/G,/ A,/C/E,/ | F,E,/ F,A,/ D/F/^C/ D/F/A,/ | B,/D/A,/ B,/D/F,/ G,E,/ F,G,/ | %13
 A,F,/ G,A,/ B,^C/ DB,/ | ^C/E/A/ z/ z/ A,,/ D,/F,/^C,/ D,/F,/A,,/ | %15
 D,/F,/^C,/ D,/F,/A,,/ B,,/G,,/D,,/ D,G,,/ | A,,/F,,/D,,/ D,F,,/ G,,/A,,/B,,/ A,,/B,,/G,,/ | %17
 F,,/G,,/A,,/ G,,/A,,/F,,/ E,,/F,,/G,,/ F,,/G,,/E,,/ | D,,E,,/ F,,G,,/ A,,B,,/ ^C,D,/ | %19
 E,,F,,/ G,,A,,/ B,,^C,/ D,E,/ | F,G,/ F,E,/ F,G,/ F,D,/ | %21
 D,/G,/B,/ B,/G,/D,/ D,/F,/A,/ A,/F,/D,/ | E,3/2E,3/2 D, z/ z3/2 | %23
 A,/^C/A,/ E,/A,/E,/ ^C,/E,/C,/ A,,/B,,/C,/ | D,G,/ A,A,,/ D,,/F,,/A,,/ D, z/ | z6 | z6 | z6 | z6 | %29
 z6 | z3 z3/2 z/ z/ D/ | G/B/F/ G/B/D/ G/B/F/ G/B/D/ | E/C/G,/ GC/ D/B,/G,/ GB,/ | %33
 C/D/E/ D/E/C/ B,/D/A,/ B,/D/G,/ | CB,/ CG,/ A,/C/G,/ A,/C/E,/ | F,E,/ F,A,/ D/F/^C/ D/F/A,/ | %36
 B,/D/A,/ B,/D/F,/ G,E,/ F,G,/ | A,F,/ G,A,/ B,^C/ DB,/ | %38
 ^C/E/A/ z/ z/ A,,/ D,/F,/^C,/ D,/F,/A,,/ | D,/F,/^C,/ D,/F,/A,,/ B,,/G,,/D,,/ D,G,,/ | %40
 A,,/F,,/D,,/ D,F,,/ G,,/A,,/B,,/ A,,/B,,/G,,/ | %41
 F,,/G,,/A,,/ G,,/A,,/F,,/ E,,/F,,/G,,/ F,,/G,,/E,,/ | D,,E,,/ F,,G,,/ A,,B,,/ ^C,D,/ | %43
 E,,F,,/ G,,A,,/ B,,^C,/ D,E,/ | F,G,/ F,E,/ F,G,/ F,D,/ | %45
 D,/G,/B,/ B,/G,/D,/ D,/F,/A,/ A,/F,/D,/ | E,3/2E,3/2 D, z/ z3/2 | %47
 A,/^C/A,/ E,/A,/E,/ ^C,/E,/C,/ A,,/B,,/C,/ | D,G,/ A,A,,/ D,,/F,,/A,,/ D, A,/ | %49
 F,/D,/G,/ F,/D,/A,/ F,/D,/G,/ F,/D,/A,/ | F,/A,/C/ D,B,/ G,/B,/D/ E,C/ | %51
 A,/C/E/ F,/D/C/ B,/G,/D,/ G,/D,/B,,/ | G,,E,/ D,F,,/ G,,E,/ D,F,,/ | %53
 G,,/B,,/D,/ B,,/G,,/C,/ A,,/C,/E,/ C,/A,,/D,/ | B,,/D,/=F,/ D,/B,,/D,/ C,/E,/G,/ E,/C,/E,/ | %55
 F,,3/2 z/ z/ A,,/ B,,/D,/F,/ F,/D,/B,,/ | G,/B,/D/ B,/G,/B,/ E,C<A,- | A,B,/ A,3/2- A,B,/ A,3/2- | %58
 A,/F,/A,/ F,/D,/G,/ E,/G,/B,/ G,/E,/A,/ | F,/A,/C/ A,/F,/A,/ G,/B,/D/ B,/D/G/ | %60
 C/E/G/ E/C/E/ F,/A,/C/ A,/C/F/ | B,/^D/F/ D/B,/D/ E,/G,/B,/ G,/B,/E/ | %62
 A,/C/E/ C/A,/C/ E/[I:staff -1]A/c/ A/F/A/ | %63
[I:staff +1] ^D,/B,,/E,/ D,/B,,/F,/ D,/B,,/E,/ D,/B,,/F,/ | ^D,/F,/A,/ B,,G,/ E,/G,/B,/ ^C,A,/ | %65
 F,/A,/C/ ^D,/B,/A,/ G,/E,/B,,/ E,/B,,/G,,/ | C,3/2- C,/B,,/C,/ A,,/B,,/C,/ A,,/B,,/C,/ | %67
 F,,/A,,/C,/ ^D,/F,/A,/ G,/F,/E,/ B,B,,/ | E,C/ B,^D,/ E,C/ B,D,/ | %69
 E,/^G,/B,/ G,/E,/A,/ F,/A,/C/ A,/F,/B,/ | ^G,/B,/D/ B,/G,/B,/ A,3/2- A,G,/ | %71
 A,3/2- A,^G,/ A, z/ z3/2 |[I:staff -1] B,/^D/F/ D/B,/E/ ^C/E/G/ E/C/E/ | DB/ A^C/ DB/ AC/ | %74
 D/F/A/ F/D/G/ C/E/G/ E/C/F/ | B,/D/F/ D/B,/E/[I:staff +1] A,/C/E/ C/A,/C/ | %76
 D/A,/F,/ D, z/ z/ z/[I:staff -1] B/ A3/2 | %77
[I:staff +1] F,,/D,,/G,,/ F,,/D,,/A,,/ F,,/A,,/C,/ D,,B,,/ | %78
 G,,/B,,/D,/ E,,C,/ A,,/C,/E,/ F,,/D,/C,/ | B,,/D,/G,/ B,/G,/B,/ C/A,/F,/ D,/F,/A,/ | %80
 G,C,/ D,D,,/ G,,/B,,/D,/ G, A,/ | F,/D,/G,/ F,/D,/A,/ F,/D,/G,/ F,/D,/A,/ | %82
 F,/A,/C/ D,B,/ G,/B,/D/ E,C/ | A,/C/E/ F,/D/C/ B,/G,/D,/ G,/D,/B,,/ | %84
 G,,E,/ D,F,,/ G,,E,/ D,F,,/ | G,,/B,,/D,/ B,,/G,,/C,/ A,,/C,/E,/ C,/A,,/D,/ | %86
 B,,/D,/=F,/ D,/B,,/D,/ C,/E,/G,/ E,/C,/E,/ | F,,3/2 z/ z/ A,,/ B,,/D,/F,/ F,/D,/B,,/ | %88
 G,/B,/D/ B,/G,/B,/ E,C<A,- | A,B,/ A,3/2- A,B,/ A,3/2- | A,/F,/A,/ F,/D,/G,/ E,/G,/B,/ G,/E,/A,/ | %91
 F,/A,/C/ A,/F,/A,/ G,/B,/D/ B,/D/G/ | C/E/G/ E/C/E/ F,/A,/C/ A,/C/F/ | %93
 B,/^D/F/ D/B,/D/ E,/G,/B,/ G,/B,/E/ | A,/C/E/ C/A,/C/ E/[I:staff -1]A/c/ A/F/A/ | %95
[I:staff +1] ^D,/B,,/E,/ D,/B,,/F,/ D,/B,,/E,/ D,/B,,/F,/ | ^D,/F,/A,/ B,,G,/ E,/G,/B,/ ^C,A,/ | %97
 F,/A,/C/ ^D,/B,/A,/ G,/E,/B,,/ E,/B,,/G,,/ | C,3/2- C,/B,,/C,/ A,,/B,,/C,/ A,,/B,,/C,/ | %99
 F,,/A,,/C,/ ^D,/F,/A,/ G,/F,/E,/ B,B,,/ | E,C/ B,^D,/ E,C/ B,D,/ | %101
 E,/^G,/B,/ G,/E,/A,/ F,/A,/C/ A,/F,/B,/ | ^G,/B,/D/ B,/G,/B,/ A,3/2- A,G,/ | %103
 A,3/2- A,^G,/ A, z/ z3/2 |[I:staff -1] B,/^D/F/ D/B,/E/ ^C/E/G/ E/C/E/ | DB/ A^C/ DB/ AC/ | %106
 D/F/A/ F/D/G/ C/E/G/ E/C/F/ | B,/D/F/ D/B,/E/[I:staff +1] A,/C/E/ C/A,/C/ | %108
 D/A,/F,/ D, z/ z/ z/[I:staff -1] B/ A3/2 | %109
[I:staff +1] F,,/D,,/G,,/ F,,/D,,/A,,/ F,,/A,,/C,/ D,,B,,/ | %110
 G,,/B,,/D,/ E,,C,/ A,,/C,/E,/ F,,/D,/C,/ | B,,/D,/G,/ B,/G,/B,/ C/A,/F,/ D,/F,/A,/ | %112
 G,C,/ D,D,,/ G,,/B,,/D,/ G, z/ |] %113
V:3
 x/ | x6 | x6 | z3 z3/2 z/ z/ G/ | d/f/^c/ d/f/A/ d/f/c/ d/f/A/ | B/G/D/ dG/ A/F/D/ dF/ | %6
 G/A/B/ A/B/G/ F/A/=c/ e/d/c/ | Bd/ dd/ dd/ dc/ | G/c/e/ e/c/G/ G/B/d/ d/B/G/ | A3 G3/2 z3/2 | x6 | %11
 x6 | x6 | x6 | z3 z/ z/ A/ AA/ | AA/ AF/ D/G/B/ B/G/D/ | D/F/A/A/F/D/ E3- | ED/- D3/2-D^C/ C3/2 | %18
 z/ D- D/-D z/ A,- A,/A, | z/ E- E/-E z/ B,- B,/B, | z/ F/^C/ D/F/A,/ D/F/A,/ D/F/A,/ | %21
 B, z/ z3/2 z3/2 z/ z/[I:staff +1] D,/ | x6 | x6 |[I:staff -1] z/ z/ B/ AG/- G/A/ F/-F z/ | x6 | %26
 x6 | z3 z3/2 z/ z/ G/ | d/f/^c/ d/f/A/ d/f/c/ d/f/A/ | B/G/D/ dG/ A/F/D/ dF/ | %30
 G/A/B/ A/B/G/ F/A/=c/ e/d/c/ | Bd/ dd/ dd/ dc/ | G/c/e/ e/c/G/ G/B/d/ d/B/G/ | A3 G3/2 z3/2 | x6 | %35
 x6 | x6 | x6 | z3 z/ z/ A/ AA/ | AA/ AF/ D/G/B/ B/G/D/ | D/F/A/A/F/D/ E3- | ED/- D3/2-D^C/ C3/2 | %42
 z/ D- D/-D z/ A,- A,/A, | z/ E- E/-E z/ B,- B,/B, | z/ F/^C/ D/F/A,/ D/F/A,/ D/F/A,/ | %45
 B, z/ z3/2 z3/2 z/ z/[I:staff +1] D,/ | x6 | x6 |[I:staff -1] z/ z/ B/ AG/- G/A/ F/-F x/ | x6 | %50
 x6 | x6 | x6 | x6 | x6 | x6 | x6 | x6 | x6 | x6 | x6 | x6 | x6 | B3/2- BA/ B3/2- BA/ | %64
 B/^d/f/ d/B/e/ ^c/e/g/ e/c/f/ | ^d/f/a/ f/d/f/ e/g/d/ e/g/d/ | e z/ z3/2 z3 | z3 z3/2 z/ z/ A/ | %68
 G/E/A/ G/E/B/ G/E/A/ G/E/B/ | ^G/B/d/ Ec/ A/c/e/ Fd/ | B/d/=f/ ^G3/2 z/ z/ =F/ E3/2- | %71
 E=F/ E3/2- E/^C/E/ C/A,/D/ | x6 | x6 | x6 | x6 | x6 | DB/ A3/2 D/F/A/ F3/2 | %78
 E/G/B/ G3/2 F/A/c/ A3/2 | z/ d/B/ G3/2 z/ c/A/ F3/2 | z/ z/ E/ DC/- C/D/B,/- B, z/ | x6 | x6 | %83
 x6 | x6 | x6 | x6 | x6 | x6 | x6 | x6 | x6 | x6 | x6 | x6 | B3/2- BA/ B3/2- BA/ | %96
 B/^d/f/ d/B/e/ ^c/e/g/ e/c/f/ | ^d/f/a/ f/d/f/ e/g/d/ e/g/d/ | e z/ z3/2 z3 | z3 z3/2 z/ z/ A/ | %100
 G/E/A/ G/E/B/ G/E/A/ G/E/B/ | ^G/B/d/ Ec/ A/c/e/ Fd/ | B/d/=f/ ^G3/2 z/ z/ =F/ E3/2- | %103
 E=F/ E3/2- E/^C/E/ C/A,/D/ | x6 | x6 | x6 | x6 | x6 | DB/ A3/2 D/F/A/ F3/2 | %110
 E/G/B/ G3/2 F/A/c/ A3/2 | z/ d/B/ G3/2 z/ c/A/ F3/2 | z/ z/ E/ DC/- C/D/B,/- B, x/ |] %113
V:4
 x/ | x6 | x6 | x6 | x6 | x6 | x9/2[K:treble] x3/2 | x6 | x6 | x3[K:bass] x3 | x6 | x6 | x6 | x6 | %14
 x6 | x6 | x6 | x6 | x6 | x6 | x6 | x6 | D,3/2^C,3/2 D,E,/ F,G,/ | x6 | z3 D,,3/2- D,, z/ | x6 | %26
 x6 | x6 | x6 | x6 | x6 | x6 | x6 | x6 | x6 | x6 | x6 | x6 | x6 | x6 | x6 | x6 | x6 | x6 | x6 | %45
 x6 | D,3/2^C,3/2 D,E,/ F,G,/ | x6 | z3 D,,3/2- D,, x/ | x6 | x6 | x6 | x6 | x6 | x6 | x6 | %56
 E,,3/2 z/ z/ G,,/ A,,/C,/E,/ C,/A,,/C,/ | D,3/2- D,^C,/ D,3/2- D,C,/ | D,3/2 z3/2 z3 | x6 | x6 | %61
 x6 | z3 z3/2 z/ z/ E,/ | x6 | x6 | x6 | x6 | x6 | x6 | x6 | x6 | x6 | x6 | x6 | x6 | x6 | %76
 z3/2 z/ z/ A,,/ F,,/D,,/F,,/ F,,/D,,/A,,/ | x6 | x6 | x6 | z3 G,,3/2- G,, z/ | x6 | x6 | x6 | x6 | %85
 x6 | x6 | x6 | E,,3/2 z/ z/ G,,/ A,,/C,/E,/ C,/A,,/C,/ | D,3/2- D,^C,/ D,3/2- D,C,/ | %90
 D,3/2 z3/2 z3 | x6 | x6 | x6 | z3 z3/2 z/ z/ E,/ | x6 | x6 | x6 | x6 | x6 | x6 | x6 | x6 | x6 | %104
 x6 | x6 | x6 | x6 | z3/2 z/ z/ A,,/ F,,/D,,/F,,/ F,,/D,,/A,,/ | x6 | x6 | x6 | %112
 z3 G,,3/2- !fermata!G,, x/ |] %113
V:5
 x/ | x6 | x6 | x6 | x6 | x6 | x6 | x6 | x6 | x6 | x6 | x6 | x6 | x6 | x6 | x6 | x6 | x6 | x6 | %19
 x6 | x6 | x6 | x6 | x6 | z3 z/ A- A z/ | x6 | x6 | x6 | x6 | x6 | x6 | x6 | x6 | x6 | x6 | x6 | %36
 x6 | x6 | x6 | x6 | x6 | x6 | x6 | x6 | x6 | x6 | x6 | x6 | z3 z/ A- A x/ | x6 | x6 | x6 | x6 | %53
 x6 | x6 | x6 | x6 | x6 | x6 | x6 | x6 | x6 | x6 | x6 | x6 | x6 | x6 | x6 | x6 | x6 | x6 | x6 | %72
 x6 | x6 | x6 | x6 | x6 | x6 | x6 | x6 | z3 z/ D- D z/ | x6 | x6 | x6 | x6 | x6 | x6 | x6 | x6 | %89
 x6 | x6 | x6 | x6 | x6 | x6 | x6 | x6 | x6 | x6 | x6 | x6 | x6 | x6 | x6 | x6 | x6 | x6 | x6 | %108
 x6 | x6 | x6 | x6 | z3 z/ D- D x/ |] %113
V:6
 x/ | x6 | x6 | x6 | x6 | x6 | x6 | x6 | x6 | x6 | x6 | x6 | x6 | x6 | x6 | x6 | x6 | x6 | x6 | %19
 x6 | x6 | x6 | x6 | x6 | x6 | x6 | x6 | x6 | x6 | x6 | x6 | x6 | x6 | x6 | x6 | x6 | x6 | x6 | %38
 x6 | x6 | x6 | x6 | x6 | x6 | x6 | x6 | x6 | x6 | x6 | x6 | x6 | x6 | x6 | x6 | x6 | x6 | x6 | %57
 x6 | x6 | x6 | x6 | x6 | x6 | x6 | x6 | x6 | x6 | x6 | x6 | x6 | x6 | x6 | x6 | x6 | x6 | x6 | %76
 x6 | x6 | x6 | x6 | z3 z3/2 G, z/ | x6 | x6 | x6 | x6 | x6 | x6 | x6 | x6 | x6 | x6 | x6 | x6 | %93
 x6 | x6 | x6 | x6 | x6 | x6 | x6 | x6 | x6 | x6 | x6 | x6 | x6 | x6 | x6 | x6 | x6 | x6 | x6 | %112
 z3 z3/2 G, z/ |] %113

